!!!OTL: Were you there?
!!!COL:
**kern	**text	**text	**text	**text
*clefG2	*	*	*	*
*k[f#c#]	*	*	*	*
*M4/4	*	*	*	*
*D:	*	*	*	*
=	=	=	=	=
4A	Were	Were	Were	Were
4d	you	you	you	you
=	=	=	=	=
2f#	there	there	there	there
4f#	when	when	when	when
4f#	they	they	they	He
=	=	=	=	=
4e	cru-	nailed	laid	tose
4d	ci-	Him	Him	up
4.f#	fied	to	in	from
8e	my	the	the	the
=	=	=	=	=
1[d	Lord?	tree?	tomb?	dead?
=	=	=	=	=
2]d;	.	.	.	.
4d	Were	Were	Were	Were
4f#	you	you	you	you
=	=	=	=	=
2a	there	there	there	there
4a	when	when	when	when
4a	they	they	they	He
=	=	=	=	=
4b	cru-	nailed	laid	rose
4a	ci-	Him	Him	up
4.a	fied	to	in	from
8f#	my	the	the	the
=	=	=	=	=
1e;	Lord?	tree?	tomb?	dead?
=	=	=	=	=
2a	O	O	O	O
4.dd	.	.	.	.
8b	.	.	.	.
=	=	=	=	=
1a;	.	.	.	.
=	=	=	=	=
4b	Some-	Some-	Some-	Some-
2a	times	times	times	times
4f#	it	it	it	I
=	=	=	=	=
4.f#	caus-	caus-	caus-	feel
8e	es	es	es	like
4d	me	me	me	shout-
4d	to	to	to	ing
=	=	=	=	=
4e	trem-	trem-	trem-	glo-
2.d	ble,	ble,	ble,	ry
=	=	=	=	=
4d	trem-	trem-	trem-	glo-
2.d	ble,	ble,	ble,	ry
=	=	=	=	=
4B	trem-	trem-	trem-	glo-
2.[A	ble.	ble.	ble.	ry
=	=	=	=	=
2]A;	.	.	.	.
4d	Were	Were	Were	Were
4g	you	you	you	you
=	=	=	=	=
2f#	there	there	there	there
4f#	when	when	when	when
4f#	they	they	they	He
=	=	=	=	=
4e	cru-	nailed	laid	rose
4d	ci-	him	him	up
4.f#	fied	to	in	from
8e	my	the	the	the
=	=	=	=	=
1[d	Lord?	tree?	tomb?	dead?
=	=	=	=	=
2]d;	.	.	.	.
==	==	==	==	==
